docs/public/logo.svg

<svg width="126" height="128" viewBox="0 0 126 128" fill="none" xmlns="http://www.w3.org/2000/svg">
<path d="M102.575 29.9256C102.344 29.6803 102.098 29.435 101.853 29.2041C101.608 28.9733 101.377 28.7136 101.132 28.4827C100.886 28.2518 100.656 27.9921 100.41 27.7613C100.165 27.5304 99.9341 27.2707 99.6888 27.0398C99.4435 26.809 99.2127 26.5492 98.9674 26.3184C98.7221 26.0875 98.4912 25.8278 98.2459 25.5969C98.0007 25.3661 97.7698 25.1063 97.5245 24.8755C104.681 31.9091 108.782 41.4777 108.938 51.5111C108.938 75.4197 84.6684 94.8698 54.8296 94.8698C38.121 94.8698 23.1727 88.7664 13.2312 79.2001L13.9526 79.9215L14.6741 80.643L15.3955 81.3644L16.117 82.0859L16.8384 82.8073L17.5599 83.5287L18.2813 84.2502C28.2083 94.2205 43.4885 100.641 60.6011 100.641C90.4399 100.641 114.709 81.1913 114.709 57.3548C114.709 47.1681 110.323 37.5152 102.575 29.9256Z" fill="black"/>
<path d="M105.331 51.5109C105.331 73.4572 82.7206 91.248 54.8297 91.248C26.9387 91.248 4.32874 73.4572 4.32874 51.5109C4.32874 37.9045 12.986 25.8853 26.2894 18.7575C39.5928 11.6296 47.875 4.32861 54.8297 4.32861C61.7844 4.32861 67.7291 10.2877 83.3699 18.7575C96.6733 25.8853 105.331 37.9045 105.331 51.5109Z" fill="#FBF0DF"/>
<path d="M105.331 51.511C105.324 48.6917 104.935 45.8863 104.176 43.1711C100.237 91.2192 41.6272 93.5278 18.5844 79.1567C28.9429 87.1854 41.7255 91.4497 54.8296 91.248C82.6773 91.248 105.331 73.4284 105.331 51.511Z" fill="#F6DECE"/>
<path d="M35.394 16.117C41.8437 12.25 50.4145 4.99234 58.8409 4.97791C57.5446 4.5589 56.192 4.33995 54.8297 4.32861C51.3379 4.32861 47.6153 6.13222 42.9259 8.84484C41.2954 9.79715 39.6073 10.8505 37.8181 11.947C34.4562 14.0248 30.6037 16.3767 26.275 18.7286C12.5387 26.1595 4.32874 38.4095 4.32874 51.5109C4.32874 52.0881 4.32874 52.6652 4.32874 53.228C13.0726 22.3358 28.9588 19.9839 35.394 16.117Z" fill="#FFFEFC"/>
<path fill-rule="evenodd" clip-rule="evenodd" d="M50.6741 7.97914C50.6943 11.3861 49.979 14.7573 48.577 17.8625C47.175 20.9677 45.1195 23.7338 42.5506 25.9719C42.1466 26.3326 42.4641 27.0252 42.9835 26.8232C47.846 24.933 54.4111 19.2769 51.6408 7.86371C51.5254 7.21441 50.6741 7.38756 50.6741 7.97914ZM53.9494 7.97914C55.7149 10.8598 56.8366 14.0881 57.2375 17.4428C57.6385 20.7975 57.3093 24.1992 56.2725 27.4148C56.0993 27.9198 56.7198 28.3527 57.0661 27.9342C60.226 23.8942 62.9819 15.8717 54.7286 7.21441C54.3101 6.83926 53.6608 7.41642 53.9494 7.92143V7.97914ZM57.9318 7.73385C60.6965 9.6912 63.0094 12.2187 64.7144 15.1458C66.4194 18.0729 67.4769 21.3316 67.8155 24.7022C67.8009 24.8236 67.8336 24.9461 67.9069 25.044C67.9801 25.142 68.0882 25.2081 68.2088 25.2285C68.3295 25.2489 68.4533 25.2221 68.5547 25.1537C68.6561 25.0852 68.7273 24.9804 68.7534 24.8609C70.0809 19.8252 69.3306 11.2401 58.4079 6.78155C57.8308 6.55069 57.4556 7.32985 57.9318 7.67614V7.73385ZM31.2961 22.7398C34.5849 21.7573 37.6298 20.0932 40.2327 17.8558C42.8355 15.6183 44.938 12.8578 46.4031 9.75389C46.6629 9.23445 47.4853 9.43646 47.3554 10.0136C44.8593 21.5567 36.505 23.9663 31.3106 23.6489C30.7623 23.6633 30.7767 22.8986 31.2961 22.7398Z" fill="#CCBEA7"/>
<path d="M54.8296 94.8696C24.9907 94.8696 0.721436 75.4196 0.721436 51.511C0.721436 37.0821 9.63846 23.62 24.5723 15.5543C28.901 13.2457 32.6092 10.9226 35.9134 8.88816C37.7314 7.76271 39.4485 6.70941 41.1078 5.72824C46.1723 2.72705 50.5009 0.721436 54.8296 0.721436C59.1582 0.721436 62.9386 2.4529 67.6713 5.25209C69.1142 6.07454 70.557 6.96913 72.1009 7.95029C75.6937 10.1723 79.7482 12.6829 85.0869 15.5543C100.021 23.62 108.938 37.0677 108.938 51.511C108.938 75.4196 84.6684 94.8696 54.8296 94.8696ZM54.8296 4.32865C51.3378 4.32865 47.6152 6.13225 42.9258 8.84488C41.2953 9.79718 39.6072 10.8505 37.818 11.9471C34.4561 14.0248 30.6036 16.3767 26.2749 18.7286C12.5387 26.1595 4.32865 38.4096 4.32865 51.511C4.32865 73.4284 26.9819 91.2624 54.8296 91.2624C82.6773 91.2624 105.331 73.4284 105.331 51.511C105.331 38.4096 97.1205 26.1595 83.3699 18.7575C77.9157 15.8717 73.6592 13.1591 70.2107 11.0236C68.638 10.0569 67.1951 9.16231 65.8821 8.36872C61.5102 5.77153 58.3214 4.32865 54.8296 4.32865Z" fill="black"/>
<path d="M65.0019 62.0439C64.3537 64.6987 62.8783 67.0787 60.7887 68.8399C59.2199 70.3606 57.1891 71.3151 55.0172 71.5525C52.78 71.3527 50.6779 70.3958 49.0581 68.8399C46.9898 67.0703 45.5351 64.6913 44.9026 62.0439C44.8816 61.8867 44.8969 61.7269 44.9473 61.5765C44.9976 61.4262 45.0817 61.2893 45.1932 61.1765C45.3046 61.0637 45.4403 60.9779 45.5901 60.9257C45.7398 60.8734 45.8994 60.8562 46.0569 60.8752H63.862C64.0183 60.8585 64.1764 60.8776 64.3242 60.9309C64.4721 60.9842 64.6059 61.0703 64.7157 61.1829C64.8254 61.2954 64.9082 61.4313 64.9578 61.5805C65.0074 61.7296 65.0225 61.8881 65.0019 62.0439Z" fill="#B71422"/>
<path d="M49.0582 68.9556C50.6747 70.5124 52.7692 71.4783 55.0028 71.697C57.2314 71.4752 59.3203 70.5095 60.9331 68.9556C61.449 68.4747 61.9311 67.9589 62.376 67.4117C61.4871 66.4033 60.4014 65.5874 59.1855 65.0142C57.9696 64.441 56.6493 64.1226 55.3059 64.0786C53.8683 64.1127 52.4606 64.4955 51.2038 65.1943C49.9471 65.893 48.879 66.8867 48.0914 68.0898C48.4233 68.3928 48.7119 68.6814 49.0582 68.9556Z" fill="#FF6164"/>
<path d="M49.289 67.8154C50.0043 66.8908 50.92 66.1403 51.9671 65.6205C53.0143 65.1007 54.1656 64.825 55.3346 64.8142C57.4955 64.878 59.5542 65.7478 61.1062 67.2527C61.438 66.892 61.7555 66.5169 62.0585 66.1417C60.2229 64.3935 57.797 63.3995 55.2625 63.3569C53.908 63.3686 52.5729 63.68 51.353 64.2687C50.1331 64.8575 49.0586 65.709 48.2068 66.7621C48.5479 67.1328 48.9092 67.4844 49.289 67.8154Z" fill="black"/>
<path d="M54.9595 72.4182C52.5551 72.2076 50.2925 71.1906 48.5387 69.5325C46.3052 67.6434 44.733 65.0906 44.0513 62.2459C44.0024 61.9926 44.0107 61.7317 44.0756 61.482C44.1405 61.2324 44.2604 61.0004 44.4264 60.803C44.6242 60.5642 44.8739 60.3738 45.1564 60.2463C45.439 60.1187 45.747 60.0575 46.0569 60.0672H63.8621C64.1715 60.0606 64.4785 60.1233 64.7606 60.2506C65.0427 60.378 65.2927 60.5667 65.4925 60.803C65.657 61.0011 65.7748 61.2336 65.8372 61.4834C65.8997 61.7331 65.9052 61.9937 65.8533 62.2459C65.1715 65.0906 63.5994 67.6434 61.3659 69.5325C59.6159 71.1877 57.3588 72.2044 54.9595 72.4182ZM46.0569 61.7409C45.826 61.7409 45.7683 61.8419 45.7539 61.8708C46.3638 64.3376 47.7435 66.5461 49.693 68.1762C51.1185 69.5806 52.9719 70.4692 54.9595 70.7012C56.942 70.4718 58.7933 69.5943 60.226 68.205C62.1694 66.5722 63.5437 64.3642 64.1507 61.8996C64.1192 61.8535 64.0756 61.8169 64.0247 61.794C63.9737 61.7711 63.9175 61.7627 63.8621 61.7698L46.0569 61.7409Z" fill="black"/>
<path d="M76.7901 62.9385C81.4519 62.9385 85.231 60.7163 85.231 57.975C85.231 55.2337 81.4519 53.0115 76.7901 53.0115C72.1284 53.0115 68.3492 55.2337 68.3492 57.975C68.3492 60.7163 72.1284 62.9385 76.7901 62.9385Z" fill="#FEBBD0"/>
<path d="M33.114 62.9385C37.7757 62.9385 41.5548 60.7163 41.5548 57.975C41.5548 55.2337 37.7757 53.0115 33.114 53.0115C28.4522 53.0115 24.6731 55.2337 24.6731 57.975C24.6731 60.7163 28.4522 62.9385 33.114 62.9385Z" fill="#FEBBD0"/>
<path fill-rule="evenodd" clip-rule="evenodd" d="M37.082 55.9841C38.655 55.9869 40.1935 55.5231 41.5029 54.6512C42.8122 53.7794 43.8334 52.5387 44.4374 51.0862C45.0413 49.6338 45.2008 48.0348 44.8957 46.4916C44.5906 44.9485 43.8345 43.5305 42.7232 42.4172C41.6119 41.3039 40.1953 40.5453 38.6528 40.2373C37.1102 39.9294 35.5109 40.086 34.0573 40.6873C32.6037 41.2886 31.3612 42.3076 30.487 43.6153C29.6128 44.9231 29.1461 46.4607 29.1461 48.0338C29.1461 50.1398 29.9818 52.1598 31.4696 53.6504C32.9575 55.1409 34.9759 55.9802 37.082 55.9841ZM72.8222 55.9841C74.3971 55.9955 75.9398 55.539 77.2548 54.6723C78.5698 53.8057 79.5978 52.5681 80.2084 51.1164C80.819 49.6647 80.9847 48.0644 80.6844 46.5184C80.3842 44.9724 79.6316 43.5505 78.5221 42.4328C77.4126 41.3152 75.9961 40.5522 74.4523 40.2407C72.9086 39.9293 71.3071 40.0833 69.851 40.6833C68.3949 41.2833 67.1498 42.3023 66.2736 43.6109C65.3975 44.9195 64.9297 46.4589 64.9296 48.0338C64.9258 50.1335 65.7543 52.1492 67.2336 53.6393C68.7129 55.1295 70.7225 55.9726 72.8222 55.9841Z" fill="black"/>
<path fill-rule="evenodd" clip-rule="evenodd" d="M34.6291 48.5384C35.2204 48.5413 35.7993 48.3686 36.2924 48.0421C36.7854 47.7157 37.1705 47.2502 37.3988 46.7047C37.627 46.1592 37.6882 45.5582 37.5746 44.9779C37.461 44.3976 37.1777 43.864 36.7606 43.4449C36.3435 43.0257 35.8113 42.7398 35.2315 42.6234C34.6518 42.507 34.0505 42.5653 33.5039 42.7909C32.9573 43.0165 32.49 43.3993 32.1611 43.8908C31.8323 44.3823 31.6567 44.9603 31.6567 45.5517C31.6567 46.3413 31.9694 47.0988 32.5264 47.6586C33.0834 48.2183 33.8394 48.5346 34.6291 48.5384ZM70.3693 48.5384C70.9607 48.5413 71.5395 48.3686 72.0326 48.0421C72.5257 47.7157 72.9107 47.2502 73.139 46.7047C73.3673 46.1592 73.4285 45.5582 73.3149 44.9779C73.2013 44.3976 72.9179 43.864 72.5008 43.4449C72.0837 43.0257 71.5515 42.7398 70.9718 42.6234C70.392 42.507 69.7907 42.5653 69.2441 42.7909C68.6975 43.0165 68.2302 43.3993 67.9014 43.8908C67.5725 44.3823 67.397 44.9603 67.397 45.5517C67.3969 46.3364 67.7056 47.0896 68.2564 47.6485C68.8072 48.2074 69.5559 48.5271 70.3405 48.5384H70.3693Z" fill="white"/>
<path d="M97.8268 95L97.8268 127.533L125.653 111.533L125.653 79L97.8268 95Z" fill="#FB992D"/>
<path d="M97.8266 95L97.8266 127L70.0005 111V79L97.8266 95Z" fill="#FFB739"/>
<path d="M70 79L79.7273 84.5929L98.1565 79.1781L107.553 68.5921L97.8261 63L70 79Z" fill="#FB992D"/>
<path d="M88.1006 89.4076L97.8261 95.0001L125.652 79.0001L115.927 73.4067L97.3612 78.8997L88.1006 89.4076Z" fill="#F67A21"/>
<path d="M88.1007 103.32L79.7274 98.5058V84.5928L87.7985 85.2232L88.1007 89.4074V103.32Z" fill="#FFEAC3"/>
<path d="M79.7274 84.5931L107.553 68.5923L115.927 73.4069L88.1007 89.4077L79.7274 84.5931Z" fill="#FFD488"/>
</svg>

<svg xmlns="http://www.w3.org/2000/svg" width="122" height="126" fill="none"><path fill="#000" d="M102.575 29.926c-.231-.246-.477-.491-.722-.722s-.476-.49-.721-.721c-.246-.231-.476-.49-.722-.722-.245-.23-.476-.49-.721-.721s-.476-.49-.722-.722c-.245-.23-.476-.49-.721-.721s-.476-.49-.721-.722a38.18 38.18 0 0 1 11.413 26.636c0 23.909-24.27 43.359-54.108 43.359-16.709 0-31.657-6.104-41.599-15.67l.722.721.721.722.722.721.721.722.721.721.722.722.721.721c9.927 9.97 25.208 16.391 42.32 16.391 29.839 0 54.108-19.45 54.108-43.286 0-10.187-4.386-19.84-12.134-27.43"/><path fill="#FBF0DF" d="M105.331 51.51c0 21.947-22.61 39.738-50.501 39.738S4.329 73.458 4.329 51.511c0-13.607 8.657-25.626 21.96-32.754S47.875 4.33 54.83 4.33s12.9 5.959 28.54 14.429c13.304 7.127 21.962 19.147 21.962 32.753"/><path fill="#F6DECE" d="M105.331 51.511a31.3 31.3 0 0 0-1.155-8.34c-3.939 48.048-62.549 50.357-85.592 35.986A57.7 57.7 0 0 0 54.83 91.248c27.847 0 50.501-17.82 50.501-39.737"/><path fill="#FFFEFC" d="M35.394 16.117c6.45-3.867 15.02-11.125 23.447-11.14a13.4 13.4 0 0 0-4.011-.648c-3.492 0-7.215 1.803-11.904 4.516-1.63.952-3.319 2.005-5.108 3.102-3.362 2.078-7.214 4.43-11.543 6.782-13.736 7.43-21.946 19.68-21.946 32.782v1.717c8.744-30.892 24.63-33.244 31.065-37.111"/><path fill="#CCBEA7" fill-rule="evenodd" d="M50.674 7.98a23.68 23.68 0 0 1-8.123 17.992c-.404.36-.087 1.053.432.851 4.863-1.89 11.428-7.546 8.658-18.96-.116-.649-.967-.475-.967.116m3.275 0a23.43 23.43 0 0 1 2.324 19.435c-.174.505.447.938.793.52 3.16-4.04 5.916-12.063-2.337-20.72-.419-.376-1.068.201-.78.706zm3.983-.246a23.7 23.7 0 0 1 9.883 16.968.476.476 0 0 0 .938.159c1.328-5.036.578-13.62-10.345-18.08-.577-.23-.952.549-.476.895zM31.296 22.74A24.44 24.44 0 0 0 46.403 9.754c.26-.52 1.082-.318.952.26-2.496 11.543-10.85 13.952-16.044 13.635-.549.014-.534-.75-.015-.91" clip-rule="evenodd"/><path fill="#000" d="M54.83 94.87C24.99 94.87.72 75.42.72 51.51c0-14.429 8.917-27.891 23.851-35.957 4.329-2.308 8.037-4.631 11.341-6.666a302 302 0 0 1 5.195-3.16C46.172 2.728 50.5.721 54.83.721s8.109 1.732 12.841 4.531c1.443.823 2.886 1.717 4.43 2.698 3.593 2.222 7.647 4.733 12.986 7.604 14.934 8.066 23.851 21.514 23.851 35.957 0 23.909-24.27 43.359-54.108 43.359m0-90.541c-3.492 0-7.215 1.803-11.904 4.516-1.63.952-3.319 2.005-5.108 3.102-3.362 2.078-7.214 4.43-11.543 6.782-13.736 7.43-21.946 19.68-21.946 32.782 0 21.917 22.653 39.751 50.5 39.751s50.502-17.834 50.502-39.751c0-13.101-8.21-25.351-21.961-32.754-5.454-2.885-9.71-5.598-13.16-7.733-1.572-.967-3.015-1.862-4.328-2.655-4.372-2.597-7.56-4.04-11.052-4.04"/><path fill="#B71422" d="M65.002 62.044a12.9 12.9 0 0 1-4.213 6.796 9.83 9.83 0 0 1-5.772 2.712 9.87 9.87 0 0 1-5.959-2.712 12.9 12.9 0 0 1-4.155-6.796 1.038 1.038 0 0 1 1.154-1.169h17.805a1.038 1.038 0 0 1 1.14 1.169"/><path fill="#FF6164" d="M49.058 68.956a9.97 9.97 0 0 0 5.945 2.741 9.97 9.97 0 0 0 5.93-2.741q.775-.722 1.443-1.544a9.86 9.86 0 0 0-7.07-3.333 8.87 8.87 0 0 0-7.215 4.01c.332.304.62.592.967.867"/><path fill="#000" d="M49.289 67.815a7.73 7.73 0 0 1 6.046-3c2.16.063 4.22.933 5.771 2.438.332-.361.65-.736.953-1.111a10.1 10.1 0 0 0-6.796-2.785 9.18 9.18 0 0 0-7.056 3.405q.511.556 1.082 1.053"/><path fill="#000" d="M54.96 72.418a10.7 10.7 0 0 1-6.421-2.886 13.74 13.74 0 0 1-4.488-7.286 1.73 1.73 0 0 1 .375-1.443 2.04 2.04 0 0 1 1.63-.736h17.806a2.08 2.08 0 0 1 1.63.736 1.72 1.72 0 0 1 .361 1.443 13.74 13.74 0 0 1-4.487 7.286 10.7 10.7 0 0 1-6.407 2.886m-8.903-10.677c-.231 0-.289.1-.303.13a11.96 11.96 0 0 0 3.939 6.305 9 9 0 0 0 5.267 2.525 9.06 9.06 0 0 0 5.266-2.496 11.98 11.98 0 0 0 3.925-6.305.3.3 0 0 0-.289-.13z"/><path fill="#FEBBD0" d="M76.79 62.939c4.662 0 8.441-2.223 8.441-4.964s-3.78-4.964-8.44-4.964c-4.663 0-8.442 2.223-8.442 4.964s3.78 4.963 8.441 4.963M33.114 62.939c4.662 0 8.44-2.223 8.44-4.964s-3.778-4.964-8.44-4.964-8.44 2.223-8.44 4.964 3.778 4.963 8.44 4.963"/><path fill="#000" fill-rule="evenodd" d="M37.082 55.984a7.95 7.95 0 1 0 .028-15.901 7.95 7.95 0 0 0-.028 15.901m35.74 0a7.95 7.95 0 1 0-7.892-7.95 7.936 7.936 0 0 0 7.892 7.95" clip-rule="evenodd"/><path fill="#fff" fill-rule="evenodd" d="M34.63 48.538a2.986 2.986 0 1 0 .028-5.972 2.986 2.986 0 0 0-.029 5.972m35.74 0a2.986 2.986 0 1 0-.03 0z" clip-rule="evenodd"/><path fill="#FB992D" d="M89.8 91.76 94 126l28-15.75v-31.5z"/><path fill="#FFB739" d="M94 90.391V126l-28-15.75v-31.5z"/><path fill="#FB992D" d="m66 78.75 9.788 5.505 18.544-5.33 9.455-10.42L94 63z"/><path fill="#F67A21" d="M84.214 88.995 94 94.5l27.999-15.75-9.786-5.506-18.681 5.407z"/><path fill="#FFEAC3" d="m84.214 102.691-8.426-4.74V84.256l8.121.62.304 4.119z"/><path fill="#FFD488" d="m75.788 84.256 27.999-15.751 8.426 4.739-28 15.75z"/></svg>
